X: 16
T: Jannie's Babie
T: (hand-edited version)
%R: march, reel
B: Name "Kauntze's Collection of the most favorite Dances, Reels, Waltzes, &c."
F: http://imslp.org/wiki/Kauntze%27s_Collection_of_Dances,_Reels,_Waltzes_etc._%28Various%29
Z: 2014 John Chambers <jc:trillian.mit.edu>
N: This is the marked up (edited) version by some previous owner of the book.
N: The 2nd strain has initial repeat but no final repeat; not fixed.
M: 2/4
L: 1/8
K: D
% - - - - - - - - - - - - - - - - - - - - - - - - - - - - -
V: 1
f |\
(a>b).a.g | fd-df | gBed | cBAf |\
a>bag | fdaf | bg ec | d2z :|
|: a |\
fdge | fdaf | bB ed | d/c/B/c/Aa |\
fdge | fdaf | bgec | d3 |]
% - - - - - - - - - - - - - - - - - - - - - - - - - - - - -
V: 2 clef=bass middle=d
z |\
d2  f2 | a2 fd' | b2 ^g2 | a2A2 |
d2  f2 | a2 f2  | g2 a2 | d2z :||: z | d2e2 | d2f2 |
g2 ^g2 | a2 A2  | d2 e2 | d2f2 | g2aA | d3 |]
% - - - - - - - - - - Dance description - - - - - - - - - -
%%begintext align
%% Cast off 2 Cu: up again, Lead down the middle, up again, Allmand, swing Corners
%% and foot it outsides with your Partner.
%%endtext
